X:108
T:(Air De La Crousado)
M:3/4
L:1/4
N:La Bourre 4th edition 1929, page 116
Z:Steve Mansfield www.lesession.co.uk June 2012
K:F
z [DFA] [DFA] | z [DFA] [DFA] | z [DFA] [DFA] !segno!|| c2 A/B/ | c2 A/B/ | 
c B A | G3 | G A B | c > d c | B A G | (A2 F) |
c2 A/B/ | c2 A/B/ | c B A | G3 | G A B | c d c | 
B A G | F2 F |: G/A/ B c | G2 c | d/c/ B A | G/B/ A F | 
G/A/ B c | G2 c | d/c/ B A | G2 F | G/A/ B c | G2 c |
d/c/ B A | G/B/ A F | G/A/ B c | G2 c | d/c/ B A | 
G2 F :: G/A/ B c | F2 G | G/A/ F E | F/G/ A F | 
G/A/ B c | F2 G | G/A/ F E | F2 F | G/A/ B c | F2 G |
G/A/ F E | F/G/ A F | G/A/ B c | F2 G | G/A/ F E | F2 F !segno! :|
% woodenflute.abc
%
% The woodenflute mailing list exists to discuss all aspects of the wooden flute -
% music, history, technique, players, making, workshops, festivals, new CDs, and gossip.
%
% In the course of discussions, tunes were often posted to the list in abc format.
% These tunes were posted to illustrate a point, to answer a query, or just as one
% wooden flute player sharing a good tune with the members of the list.
%
% The file woodenflute.abc comprises the 641 abc tunes posted to the list between
% October 1998 and April 2003. I have made an honest attempt to credit all individual abc notations
% to the correct transcriber, and to observe any copyright issues relating to tunes
% in the file : I will happily correct any errors. The archive stops at April 2003 because, for no 
% very good reason I can discern, the users just stopped posting tunes to the list.
%
% I have manually tidied abc notation where necessary to generate a readable abc file, but without
% (intentionally) altering the actual transcription except in correcting certain glaringly 
% obvious errors or ommissions. The abc has been tested and found OK against my copies of 
% abcm2ps and Abc2Win, your mileage may vary. See my abc tutorial at http://www.lesession.co.uk.
%
% Multiple versions of the same tune may sometimes be found in the woodenflute archives - 
% this is a feature not a bug, although exactly the same transcription should not appear twice. 
% There is not one correct version of a traditional tune (or indeed of many newly-composed tunes), 
% and different transcriptions show either regional variations, players' styles, 
% or just the effect of the aural tradition in action.
%
% This file was downloaded from http://www.lesession.co.uk . 
%
% This file now comprises all of the tunes
% previously online in woodenflute.abc, wf_update1.abc, wf_update2.abc, and wf_update3.abc 
% (the original update files are also still available for any old hyperlinks). This is purely 
% because we have moved on from the download speeds offered by the 56K modems 
% prevalent when this tune collection was originally created.
%
% Details of how to join the woodenflute mailing list (of which I am a member,
% but not the owner) may be found at www.woodenflute.com.
<end>
<start>
